**kern	**silbe	**kern	**silbe	**harmony	**chordsym	**phrase	**timestamp	**leadinstrument
*ICvox	*	*ICvox	*	*M4/4	*M4/4	*	*	*
*f:	*	*f:	*	*f:	*f:	*f:	*f:	*f:
*M4/4	*	*M4/4	*	*	*	*	*	*
*clefF4	*	*clefF4	*	*	*	*	*	*
r;	.	r;	.	1r;	r	.	0	r
=1	=1	=1	=1	=1	=1	=1	=1	=1
*	*	*	*	*>A_intro	*>A_intro	*>A_intro	*>A_intro	*>A_intro
1r	.	1r	.	1Fmm	F:min7 (F A- C E-)	newline	0.418	guitar
=2	=2	=2	=2	=2	=2	=2	=2	=2
1r	.	1r	.	2Fmm	F:min7 (B- F A- C E-)	.	.	guitar
.	.	.	.	4Fmm	F:min7 (A- F C E-)	.	.	guitar
.	.	.	.	4Fmm	F:min7 (G F A- C E-)	.	.	guitar
=3	=3	=3	=3	=3	=3	=3	=3	=3
1r	.	1r	.	1Fmm	F:min7 (F A- C E-)	.	.	guitar
=4	=4	=4	=4	=4	=4	=4	=4	=4
2r	.	1r	.	2Fmm	F:min7 (B- F A- C E-)	.	.	guitar
8r	.	.	.	4Fmm	F:min7 (A- F C E-)	.	.	guitar
4F	Girl	.	.	.	.	.	.	.
.	.	.	.	4Fmm	F:min7 (G F A- C E-)	.	.	guitar
8E-	you	.	.	.	.	.	.	.
=5	=5	=5	=5	=5	=5	=5	=5	=5
*	*	*	*	*>B_verse	*>B_verse	*>B_verse	*>B_verse	*>B_verse
8F	thought	1r	.	1Fmm	F:min7 (F A- C E-)	newline	7.717	voice
8F	you	.	.	.	.	.	.	.
8F	found	.	.	.	.	.	.	.
8F	the	.	.	.	.	.	.	.
8F	an-	.	.	.	.	.	.	.
8F	-swer	.	.	.	.	.	.	.
8F	on	.	.	.	.	.	.	.
8F	that	.	.	.	.	.	.	.
=6	=6	=6	=6	=6	=6	=6	=6	=6
8F	mag-	1r	.	2Fmm	F:min7 (B- F A- C E-)	.	.	voice
8F	-ic	.	.	.	.	.	.	.
8F	car-	.	.	.	.	.	.	.
8F	-pet	.	.	.	.	.	.	.
8F	ride	.	.	4Fmm	F:min7 (A- F C E-)	.	.	voice
4A-	last	.	.	.	.	.	.	.
.	.	.	.	4Fmm	F:min7 (G F A- C E-)	.	.	voice
8[c	night	.	.	.	.	.	.	.
=7	=7	=7	=7	=7	=7	=7	=7	=7
2c]	_	1r	.	1Fmm	F:min7 (F A- C E-)	.	.	voice
2r	.	.	.	.	.	.	.	.
=8	=8	=8	=8	=8	=8	=8	=8	=8
2r	.	1r	.	2Fmm	F:min7 (B- F A- C E-)	.	.	voice
8r	.	.	.	4Fmm	F:min7 (A- F C E-)	.	.	voice
8c	But	.	.	.	.	.	.	.
8e-	when	.	.	4Fmm	F:min7 (G F A- C E-)	.	.	voice
8c	you	.	.	.	.	.	.	.
=9	=9	=9	=9	=9	=9	=9	=9	=9
8e-	wake	1r	.	1Fmm	F:min7 (F A- C E-)	newline	14.953	voice
8f	up	.	.	.	.	.	.	.
8r	.	.	.	.	.	.	.	.
16f	in	.	.	.	.	.	.	.
16f	the	.	.	.	.	.	.	.
8f	mor-	.	.	.	.	.	.	.
8e-	_	.	.	.	.	.	.	.
16e-	-nin'	.	.	.	.	.	.	.
16e-	the	.	.	.	.	.	.	.
8[f	world	.	.	.	.	.	.	.
=10	=10	=10	=10	=10	=10	=10	=10	=10
4.f]	_	1r	.	2Fmm	F:min7 (B- F A- C E-)	.	.	voice
8e-	still	.	.	.	.	.	.	.
8c	gets	.	.	4Fmm	F:min7 (A- F C E-)	.	.	voice
8B-	you	.	.	.	.	.	.	.
8A-	up-	.	.	4Fmm	F:min7 (G F A- C E-)	.	.	voice
8[c	-tight	.	.	.	.	.	.	.
=11	=11	=11	=11	=11	=11	=11	=11	=11
2c]	_	1r	.	1Fmm	F:min7 (F A- C E-)	.	.	voice
2r	.	.	.	.	.	.	.	.
=12	=12	=12	=12	=12	=12	=12	=12	=12
2r	.	1r	.	2Fmm	F:min7 (B- F A- C E-)	.	.	voice
8r	.	.	.	4Fmm	F:min7 (A- F C E-)	.	.	voice
4c	Well	.	.	.	.	.	.	.
.	.	.	.	4Fmm	F:min7 (G F A- C E-)	.	.	voice
8A-	there's	.	.	.	.	.	.	.
=13	=13	=13	=13	=13	=13	=13	=13	=13
8B-	noth-	1r	.	1D-M	D-:maj (D- F A-)	newline	22.27	voice
8A-	-in'	.	.	.	.	.	.	.
8B-	that	.	.	.	.	.	.	.
8A-	uh	.	.	.	.	.	.	.
8B-	you	.	.	.	.	.	.	.
4A-	ain't	.	.	.	.	.	.	.
8[B-	tried	.	.	.	.	.	.	.
=14	=14	=14	=14	=14	=14	=14	=14	=14
4B-]	_	1r	.	1D-M	D-:maj (D- F A-)	.	.	voice
4r	.	.	.	.	.	.	.	.
4.r	.	.	.	.	.	.	.	.
8A-	To	.	.	.	.	.	.	.
=15	=15	=15	=15	=15	=15	=15	=15	=15
8c	fill	1r	.	1Fm	F:min (F A- C)	.	.	voice
8A-	the	.	.	.	.	.	.	.
8A-	em-	.	.	.	.	.	.	.
8A-	-pti-	.	.	.	.	.	.	.
8A-	-ness	.	.	.	.	.	.	.
4B-	in	.	.	.	.	.	.	.
8F	side	.	.	.	.	.	.	.
=16	=16	=16	=16	=16	=16	=16	=16	=16
4A-	_	1r	.	2Fm	F:minmaj7 (F A- C E)	.	.	voice
4r	.	.	.	.	.	.	.	.
4r	.	.	.	2Fmm	F:min7 (F A- C E-)	.	.	voice
8c	When	.	.	.	.	.	.	.
8A-	you	.	.	.	.	.	.	.
=17	=17	=17	=17	=17	=17	=17	=17	=17
8B-	come	1r	.	1D-M	D-:maj (D- F A-)	newline	29.485	voice
4c	back	.	.	.	.	.	.	.
8B-	down	.	.	.	.	.	.	.
8A-	_	.	.	.	.	.	.	.
4A-	girl	.	.	.	.	.	.	.
8r	.	.	.	.	.	.	.	.
=18	=18	=18	=18	=18	=18	=18	=18	=18
8c	Still	1r	.	1D-M	D-:maj (D- F A-)	.	.	voice
4c	ain't	.	.	.	.	.	.	.
8r	.	.	.	.	.	.	.	.
8B-	feel-	.	.	.	.	.	.	.
4A-	-in'	.	.	.	.	.	.	.
8[c	right	.	.	.	.	.	.	.
=19	=19	=19	=19	=19	=19	=19	=19	=19
2.c]	_	1r	.	1CMm	C:7 (C E G B-)	.	.	voice
4r	.	.	.	.	.	.	.	.
=20	=20	=20	=20	=20	=20	=20	=20	=20
8r	.	1r	.	1CMm	C:7 (C E G B-)	.	.	voice
8F	And	.	.	.	.	.	.	.
8c	don't	.	.	.	.	.	.	.
8B-	it	.	.	.	.	.	.	.
4c	seem	.	.	.	.	.	.	.
4c	like	.	.	.	.	.	.	.
=21	=21	=21	=21	=21	=21	=21	=21	=21
*	*	*	*	*>C_chorus	*>C_chorus	*>C_chorus	*>C_chorus	*>C_chorus
4c	Kicks	4c	Kicks	1A-M	A-:maj (A- C E-)	newline	36.679	voice
4c	just	4c	just	.	.	.	.	.
4c	keep	4c	keep	.	.	.	.	.
8c	get-	8c	get-	.	.	.	.	.
8A-	-tin'	8A-	-tin'	.	.	.	.	.
=22	=22	=22	=22	=22	=22	=22	=22	=22
8B-	har-	8B-	har-	1D-M	D-:maj (D- F A-)	.	.	voice
8A-	-der	8A-	-der	.	.	.	.	.
8A-	to	8A-	to	.	.	.	.	.
8c	find	8c	find	.	.	.	.	.
8r	.	8r	.	.	.	.	.	.
8A-	and	8A-	and	.	.	.	.	.
8B-	all	8B-	all	.	.	.	.	.
8A-	your	8A-	your	.	.	.	.	.
=23	=23	=23	=23	=23	=23	=23	=23	=23
4c	kicks	4c	kicks	1A-M	A-:maj (A- C E-)	.	.	voice
4c	ain't	4c	ain't	.	.	.	.	.
4c	bring-	4c	bring-	.	.	.	.	.
4c	-in'	4c	-in'	.	.	.	.	.
=24	=24	=24	=24	=24	=24	=24	=24	=24
8B-	you	8B-	you	1D-M	D-:maj (D- F A-)	.	.	voice
8A-	piece	8A-	piece	.	.	.	.	.
8A-	of	8A-	of	.	.	.	.	.
8c	mind	8c	mind	.	.	.	.	.
8r	.	8r	.	.	.	.	.	.
8A-	Be-	8A-	Be-	.	.	.	.	.
8B-	-fore	8B-	-fore	.	.	.	.	.
8A-	you	8A-	you	.	.	.	.	.
=25	=25	=25	=25	=25	=25	=25	=25	=25
4c	find	4c	find	1A-M	A-:maj (A- C E-)	newline	43.92	voice
4c	out	4c	out	.	.	.	.	.
8c	it's	8c	it's	.	.	.	.	.
4c	too	4c	too	.	.	.	.	.
8c	late	8c	late	.	.	.	.	.
=26	=26	=26	=26	=26	=26	=26	=26	=26
8r	.	8r	.	1A-M	A-:maj (A- C E-)	.	.	voice
4c	girl	4c	girl	.	.	.	.	.
8c	you	8c	you	.	.	.	.	.
8c	be-	8c	be-	.	.	.	.	.
8B-	-tter	8B-	-tter	.	.	.	.	.
4A-	get	4A-	get	.	.	.	.	.
=27	=27	=27	=27	=27	=27	=27	=27	=27
1[c	straight	1[c	straight	1CMm	C:7 (C E G B-)	.	.	voice
=28	=28	=28	=28	=28	=28	=28	=28	=28
8c]	_	1c]	_	1CMm	C:7 (C E G B-)	.	.	voice
4c	No	.	.	.	.	.	.	.
8A-	but	.	.	.	.	.	.	.
4B-	not	.	.	.	.	.	.	.
4A-	with	.	.	.	.	.	.	.
=29	=29	=29	=29	=29	=29	=29	=29	=29
*	*	*	*	*>A_trans	*>A_trans	*>A_trans	*>A_trans	*>A_trans
2F	kicks	1r	.	1Fmm	F:min7 (F A- C E-)	newline	51.192	guitar
2r	.	.	.	.	.	.	.	.
=30	=30	=30	=30	=30	=30	=30	=30	=30
4.r	.	1r	.	2Fmm	F:min7 (B- F A- C E-)	.	.	guitar
8F	You	.	.	.	.	.	.	.
4F	just	.	.	4Fmm	F:min7 (A- F C E-)	.	.	guitar
8A-	need	.	.	4Fmm	F:min7 (G F A- C E-)	.	.	guitar
8r	.	.	.	.	.	.	.	.
=31	=31	=31	=31	=31	=31	=31	=31	=31
8c	help	1r	.	1Fmm	F:min7 (F A- C E-)	.	.	guitar
4.F	girl	.	.	.	.	.	.	.
2r	.	.	.	.	.	.	.	.
=32	=32	=32	=32	=32	=32	=32	=32	=32
2r	.	1r	.	2Fmm	F:min7 (B- F A- C E-)	.	.	guitar
8r	.	.	.	4Fmm	F:min7 (A- F C E-)	.	.	guitar
4F	Well	.	.	.	.	.	.	.
.	.	.	.	4Fmm	F:min7 (G F A- C E-)	.	.	guitar
8E-	you	.	.	.	.	.	.	.
=33	=33	=33	=33	=33	=33	=33	=33	=33
*	*	*	*	*>B_verse	*>B_verse	*>B_verse	*>B_verse	*>B_verse
8F	think	1r	.	1Fmm	F:min7 (F A- C E-)	newline	58.498	voice
8F	you're	.	.	.	.	.	.	.
16F	gon-	.	.	.	.	.	.	.
16F	-na	.	.	.	.	.	.	.
4F	find	.	.	.	.	.	.	.
8F	your-	.	.	.	.	.	.	.
8F	-self	.	.	.	.	.	.	.
8F	a	.	.	.	.	.	.	.
=34	=34	=34	=34	=34	=34	=34	=34	=34
8F	lit-	1r	.	2Fmm	F:min7 (B- F A- C E-)	.	.	voice
8F	-tle	.	.	.	.	.	.	.
8F	piece	.	.	.	.	.	.	.
8F	of	.	.	.	.	.	.	.
8F	par-	.	.	4Fmm	F:min7 (A- F C E-)	.	.	voice
4A-	-a-	.	.	.	.	.	.	.
.	.	.	.	4Fmm	F:min7 (G F A- C E-)	.	.	voice
8[c	-dise	.	.	.	.	.	.	.
=35	=35	=35	=35	=35	=35	=35	=35	=35
2c]	_	1r	.	1Fmm	F:min7 (F A- C E-)	.	.	voice
2r	.	.	.	.	.	.	.	.
=36	=36	=36	=36	=36	=36	=36	=36	=36
2.r	.	1r	.	2Fmm	F:min7 (B- F A- C E-)	.	.	voice
.	.	.	.	4Fmm	F:min7 (A- F C E-)	.	.	voice
16c	But	.	.	4Fmm	F:min7 (G F A- C E-)	.	.	voice
16c	it	.	.	.	.	.	.	.
8[e-	ain't	.	.	.	.	.	.	.
=37	=37	=37	=37	=37	=37	=37	=37	=37
8e-]	_	1r	.	1Fmm	F:min7 (F A- C E-)	newline	65.776	voice
4f	hap-	.	.	.	.	.	.	.
8e-	-pened	.	.	.	.	.	.	.
8f	yet	.	.	.	.	.	.	.
4r	.	.	.	.	.	.	.	.
8e-	so	.	.	.	.	.	.	.
=38	=38	=38	=38	=38	=38	=38	=38	=38
4.f	girl	1r	.	2Fmm	F:min7 (B- F A- C E-)	.	.	voice
8e-	you	.	.	.	.	.	.	.
16B-	be-	.	.	4Fmm	F:min7 (A- F C E-)	.	.	voice
8.B-	-tter	.	.	.	.	.	.	.
4A-	think	.	.	4Fmm	F:min7 (G F A- C E-)	.	.	voice
=39	=39	=39	=39	=39	=39	=39	=39	=39
2c	twice	1r	.	1Fmm	F:min7 (F A- C E-)	.	.	voice
2r	.	.	.	.	.	.	.	.
=40	=40	=40	=40	=40	=40	=40	=40	=40
2r	.	1r	.	2Fmm	F:min7 (B- F A- C E-)	.	.	voice
4r	.	.	.	4Fmm	F:min7 (A- F C E-)	.	.	voice
8c	Don't	.	.	4Fmm	F:min7 (G F A- C E-)	.	.	voice
8A-	you	.	.	.	.	.	.	.
=41	=41	=41	=41	=41	=41	=41	=41	=41
8B-	see	1r	.	1D-M	D-:maj (D- F A-)	newline	73.065	voice
8A-	no	.	.	.	.	.	.	.
8B-	mat-	.	.	.	.	.	.	.
8A-	-ter	.	.	.	.	.	.	.
6r	.	.	.	.	.	.	.	.
6B-	what	.	.	.	.	.	.	.
6A-	you	.	.	.	.	.	.	.
=42	=42	=42	=42	=42	=42	=42	=42	=42
8B	do	1r	.	1D-M	D-:maj (D- F A-)	.	.	voice
8c	_	.	.	.	.	.	.	.
4r	.	.	.	.	.	.	.	.
4r	.	.	.	.	.	.	.	.
8r	.	.	.	.	.	.	.	.
8A-	You'll	.	.	.	.	.	.	.
=43	=43	=43	=43	=43	=43	=43	=43	=43
8c	ne-	1r	.	1Fm	F:min (F A- C)	.	.	voice
4A-	-ver	.	.	.	.	.	.	.
16A-	run-	.	.	.	.	.	.	.
16A-	-a-	.	.	.	.	.	.	.
8A-	-way	.	.	.	.	.	.	.
4B-	from	.	.	.	.	.	.	.
8F	you	.	.	.	.	.	.	.
=44	=44	=44	=44	=44	=44	=44	=44	=44
4A-	_	1r	.	2Fm	F:minmaj7 (F A- C E)	.	.	voice
4r	.	.	.	.	.	.	.	.
8r	.	.	.	2Fmm	F:min7 (F A- C E-)	.	.	voice
8A-	And	.	.	.	.	.	.	.
8c	if	.	.	.	.	.	.	.
8B-	you	.	.	.	.	.	.	.
=45	=45	=45	=45	=45	=45	=45	=45	=45
4B-	keep	1r	.	1D-M	D-:maj (D- F A-)	newline	80.279	voice
4c	on	.	.	.	.	.	.	.
8B-	run-	.	.	.	.	.	.	.
8A-	-nin'	.	.	.	.	.	.	.
4r	.	.	.	.	.	.	.	.
=46	=46	=46	=46	=46	=46	=46	=46	=46
8r	.	1r	.	1D-M	D-:maj (D- F A-)	.	.	voice
8c	you'll	.	.	.	.	.	.	.
8c	have	.	.	.	.	.	.	.
8c	to	.	.	.	.	.	.	.
8B-	pay	.	.	.	.	.	.	.
4A-	the	.	.	.	.	.	.	.
8[c	price	.	.	.	.	.	.	.
=47	=47	=47	=47	=47	=47	=47	=47	=47
2.c]	_	1r	.	1CMm	C:7 (C E G B-)	.	.	voice
4r	.	.	.	.	.	.	.	.
=48	=48	=48	=48	=48	=48	=48	=48	=48
8r	.	1r	.	1CMm	C:7 (C E G B-)	.	.	voice
8F	And	.	.	.	.	.	.	.
8c	don't	.	.	.	.	.	.	.
8B-	it	.	.	.	.	.	.	.
4c	seem	.	.	.	.	.	.	.
4c	like	.	.	.	.	.	.	.
=49	=49	=49	=49	=49	=49	=49	=49	=49
*	*	*	*	*>C_chorus	*>C_chorus	*>C_chorus	*>C_chorus	*>C_chorus
4c	Kicks	4c	Kicks	1A-M	A-:maj (A- C E-)	newline	87.505	voice
4c	just	4c	just	.	.	.	.	.
4c	keep	4c	keep	.	.	.	.	.
8c	get-	8c	get-	.	.	.	.	.
8A-	-tin'	8A-	-tin'	.	.	.	.	.
=50	=50	=50	=50	=50	=50	=50	=50	=50
8B-	har-	8B-	har-	1D-M	D-:maj (D- F A-)	.	.	voice
8A-	-der	8A-	-der	.	.	.	.	.
8A-	to	8A-	to	.	.	.	.	.
8c	find	8c	find	.	.	.	.	.
8r	.	8r	.	.	.	.	.	.
8A-	and	8A-	and	.	.	.	.	.
8B-	all	8B-	all	.	.	.	.	.
8A-	your	8A-	your	.	.	.	.	.
=51	=51	=51	=51	=51	=51	=51	=51	=51
4c	kicks	4c	kicks	1A-M	A-:maj (A- C E-)	.	.	voice
4c	ain't	4c	ain't	.	.	.	.	.
4c	bring-	4c	bring-	.	.	.	.	.
4c	-in'	4c	-in'	.	.	.	.	.
=52	=52	=52	=52	=52	=52	=52	=52	=52
8B-	you	8B-	you	1D-M	D-:maj (D- F A-)	.	.	voice
8A-	piece	8A-	piece	.	.	.	.	.
8A-	of	8A-	of	.	.	.	.	.
8c	mind	8c	mind	.	.	.	.	.
8r	.	8r	.	.	.	.	.	.
8A-	Be-	8A-	Be-	.	.	.	.	.
8B-	-fore	8B-	-fore	.	.	.	.	.
8A-	you	8A-	you	.	.	.	.	.
=53	=53	=53	=53	=53	=53	=53	=53	=53
4c	find	4c	find	1A-M	A-:maj (A- C E-)	newline	94.786	voice
4c	out	4c	out	.	.	.	.	.
8c	it's	8c	it's	.	.	.	.	.
4c	too	4c	too	.	.	.	.	.
8c	late	8c	late	.	.	.	.	.
=54	=54	=54	=54	=54	=54	=54	=54	=54
8r	.	8r	.	1A-M	A-:maj (A- C E-)	.	.	voice
4c	girl	4c	girl	.	.	.	.	.
8c	you	8c	you	.	.	.	.	.
8c	be-	8c	be-	.	.	.	.	.
8B-	-tter	8B-	-tter	.	.	.	.	.
4A-	get	4A-	get	.	.	.	.	.
=55	=55	=55	=55	=55	=55	=55	=55	=55
1[c	straight	1[c	straight	1CMm	C:7 (C E G B-)	.	.	voice
=56	=56	=56	=56	=56	=56	=56	=56	=56
8c]	_	1c]	_	1CMm	C:7 (C E G B-)	.	.	voice
4c	No	.	.	.	.	.	.	.
8A	you	.	.	.	.	.	.	.
4B-	don't	.	.	.	.	.	.	.
4A	need	.	.	.	.	.	.	.
=57	=57	=57	=57	=57	=57	=57	=57	=57
*	*	*	*	*>D_bridge	*>D_bridge	*>D_bridge	*>D_bridge	*>D_bridge
2.F	kicks	1r	.	1FM	F:maj (F A C)	newline	102.146	voice
4r	.	.	.	.	.	.	.	.
=58	=58	=58	=58	=58	=58	=58	=58	=58
4.r	.	1r	.	1FM	F:maj (F A C)	.	.	voice
8A-	To	.	.	.	.	.	.	.
4A-	help	.	.	.	.	.	.	.
4c	you	.	.	.	.	.	.	.
=59	=59	=59	=59	=59	=59	=59	=59	=59
4d-	face	1r	.	1Dm	D:min (D F A)	.	.	voice
8r	.	.	.	.	.	.	.	.
8A-	the	.	.	.	.	.	.	.
8A-	world	.	.	.	.	.	.	.
4G	each	.	.	.	.	.	.	.
8[F	day	.	.	.	.	.	.	.
=60	=60	=60	=60	=60	=60	=60	=60	=60
8F]	_	1r	.	1Dm	D:min (D F A)	.	.	voice
8r	.	.	.	.	.	.	.	.
4r	.	.	.	.	.	.	.	.
4G	That	.	.	.	.	.	.	.
8A-	road	.	.	.	.	.	.	.
8G	_	.	.	.	.	.	.	.
=61	=61	=61	=61	=61	=61	=61	=61	=61
4F	goes	1r	.	1B-M	B-:maj (B- D F)	newline	109.811	voice
8G	no-	.	.	.	.	.	.	.
4.F	-where	.	.	.	.	.	.	.
4r	.	.	.	.	.	.	.	.
=62	=62	=62	=62	=62	=62	=62	=62	=62
4.r	.	1r	.	1B-M	B-:maj (B- D F)	.	.	voice
4F	I'm	.	.	.	.	.	.	.
8A-	gon-	.	.	.	.	.	.	.
4c	-na	.	.	.	.	.	.	.
=63	=63	=63	=63	=63	=63	=63	=63	=63
8c	help	1r	.	1CM	C:maj (C E G)	.	.	voice
4c	you	.	.	.	.	.	.	.
4c	find	.	.	.	.	.	.	.
4c	your-	.	.	.	.	.	.	.
8c	-self	.	.	.	.	.	.	.
=64	=64	=64	=64	=64	=64	=64	=64	=64
4f	_	1r	.	1CM	C:maj (C E G)	.	.	voice
8r	.	.	.	.	.	.	.	.
8c	a-	.	.	.	.	.	.	.
8c	-no-	.	.	.	.	.	.	.
4d-	-ther	.	.	.	.	.	.	.
8d-	way	.	.	.	.	.	.	.
=65	=65	=65	=65	=65	=65	=65	=65	=65
*	*	*	*	*>C_chorus	*>C_chorus	*>C_chorus	*>C_chorus	*>C_chorus
4c	_	4c	Kicks	1A-M	A-:maj (A- C E-)	newline	117.356	voice
4r	.	4c	just	.	.	.	.	.
2r	.	4c	keep	.	.	.	.	.
.	.	8c	get-	.	.	.	.	.
.	.	8A-	-tin'	.	.	.	.	.
=66	=66	=66	=66	=66	=66	=66	=66	=66
8r	.	8B-	har-	1D-M	D-:maj (D- F A-)	.	.	voice
4f	Oh	8A-	-der	.	.	.	.	.
.	.	8A-	to	.	.	.	.	.
8e-	you	8c	find	.	.	.	.	.
8f	don't	8r	.	.	.	.	.	.
8f	need	8A-	and	.	.	.	.	.
8e-	_	8B-	all	.	.	.	.	.
8e-	kicks	8A-	your	.	.	.	.	.
=67	=67	=67	=67	=67	=67	=67	=67	=67
8r	.	4c	kicks	1A-M	A-:maj (A- C E-)	.	.	voice
8e-	girl	.	.	.	.	.	.	.
8c	_	4c	ain't	.	.	.	.	.
4.e-	_	.	.	.	.	.	.	.
.	.	4c	bring-	.	.	.	.	.
4r	.	4c	-in'	.	.	.	.	.
=68	=68	=68	=68	=68	=68	=68	=68	=68
2r	.	8B-	you	1D-M	D-:maj (D- F A-)	.	.	voice
.	.	8A-	piece	.	.	.	.	.
.	.	8A-	of	.	.	.	.	.
.	.	8c	mind	.	.	.	.	.
8f	Just	8r	.	.	.	.	.	.
4f	need	8A-	Be-	.	.	.	.	.
.	.	8B-	-fore	.	.	.	.	.
8e-	help	8A-	you	.	.	.	.	.
=69	=69	=69	=69	=69	=69	=69	=69	=69
8r	.	4c	find	1A-M	A-:maj (A- C E-)	newline	124.705	voice
4e-	girl	.	.	.	.	.	.	.
.	.	4c	out	.	.	.	.	.
8c	_	.	.	.	.	.	.	.
16e-	_	8c	it's	.	.	.	.	.
16d-	_	.	.	.	.	.	.	.
4.c	_	4c	too	.	.	.	.	.
.	.	8c	late	.	.	.	.	.
=70	=70	=70	=70	=70	=70	=70	=70	=70
8r	.	8r	.	1A-M	A-:maj (A- C E-)	.	.	voice
4c	girl	4c	girl	.	.	.	.	.
8c	you	8c	you	.	.	.	.	.
8c	be-	8c	be-	.	.	.	.	.
8B-	-tter	8B-	-tter	.	.	.	.	.
4A-	get	4A-	get	.	.	.	.	.
=71	=71	=71	=71	=71	=71	=71	=71	=71
1[c	straight	1[c	straight	1CMm	C:7 (C E G B-)	.	.	voice
=72	=72	=72	=72	=72	=72	=72	=72	=72
4c]	_	1c]	_	1CMm	C:7 (C E G B-)	.	.	voice
8c	don't	.	.	.	.	.	.	.
8B-	it	.	.	.	.	.	.	.
4c	seem	.	.	.	.	.	.	.
4c	like	.	.	.	.	.	.	.
=73	=73	=73	=73	=73	=73	=73	=73	=73
*	*	*	*	*>C_fadeout	*>C_fadeout	*>C_fadeout	*>C_fadeout	*>C_fadeout
1r	.	4c	Kicks	1A-M	A-:maj (A- C E-)	newline	132.044	voice
.	.	4c	just	.	.	.	.	.
.	.	4c	keep	.	.	.	.	.
.	.	8c	get-	.	.	.	.	.
.	.	8A-	-tin'	.	.	.	.	.
=74	=74	=74	=74	=74	=74	=74	=74	=74
8r	.	8B-	har-	1D-M	D-:maj (D- F A-)	.	.	voice
4f	Oh	8A-	-der	.	.	.	.	.
.	.	8A-	to	.	.	.	.	.
8e-	you	8c	find	.	.	.	.	.
8f	don't	8r	.	.	.	.	.	.
4e-	need	8A-	and	.	.	.	.	.
.	.	8B-	all	.	.	.	.	.
8e-	kicks	8A-	your	.	.	.	.	.
=75	=75	=75	=75	=75	=75	=75	=75	=75
8r	.	4c	kicks	1A-M	A-:maj (A- C E-)	.	.	voice
4e-	girl	.	.	.	.	.	.	.
.	.	4c	ain't	.	.	.	.	.
8c	_	.	.	.	.	.	.	.
16e-	_	4c	bring-	.	.	.	.	.
16d-	_	.	.	.	.	.	.	.
4.c	_	.	.	.	.	.	.	.
.	.	4c	-in'	.	.	.	.	.
=76	=76	=76	=76	=76	=76	=76	=76	=76
8r	.	8B-	you	1D-M	D-:maj (D- F A-)	.	.	voice
4f	Oh	8A-	piece	.	.	.	.	.
.	.	8A-	of	.	.	.	.	.
8e-	you	8c	mind	.	.	.	.	.
8f	just	8r	.	.	.	.	.	.
4e-	need	8A-	Be-	.	.	.	.	.
.	.	8B-	-fore	.	.	.	.	.
8e-	help	8A-	you	.	.	.	.	.
=77	=77	=77	=77	=77	=77	=77	=77	=77
1r	.	4c	find	1A-M	A-:maj (A- C E-)	newline	139.326	voice
.	.	4c	out	.	.	.	.	.
.	.	8c	it's	.	.	.	.	.
.	.	4c	too	.	.	.	.	.
.	.	8c	late	.	.	.	.	.
=78	=78	=78	=78	=78	=78	=78	=78	=78
1r	.	8r	.	1A-M	A-:maj (A- C E-)	.	.	voice
.	.	4c	girl	.	.	.	.	.
.	.	8c	you	.	.	.	.	.
.	.	8c	be-	.	.	.	.	.
.	.	8B-	-tter	.	.	.	.	.
.	.	4A-	get	.	.	.	.	.
=79	=79	=79	=79	=79	=79	=79	=79	=79
1r	.	1[c	straight	1CMm	C:7 (C E G B-)	.	.	voice
=80	=80	=80	=80	=80	=80	=80	=80	=80
1r	.	1c]	_	1CMm	C:7 (C E G B-)	.	.	voice
r;	.	r;	.	1r;	r	.	145.566	r
r;	.	r;	.	1r;	r	.	149.316	r
*-	*-	*-	*-	*-	*-	*-	*-	*-
!!!BillboardChartDate: 1966/06/04
!!!BillboardPeak: 4
!!!BillboardWeeksOnChart: 14
!!!COC: Paul Revere & The Raiders
!!!ENC: Nathaniel Condit-Schultz
!!!EST: Awating manual error checking and editing.
!!!OTL: Kicks
!!!RDF**chordsym: original McGill chord annotation + (implied pitch class set, with bass pitch in first position)
!!!RDF**harmony: **recip + pitch class of root + harmonic quality
!!!RDF**leadinstrument: original McGill primary instrumentation annotation
!!!RDF**phrase: newline = linebreak in original McGill transcription
!!!RDF**timestamp: McGill audio timestamp in seconds
!!!RDT: 2017/01/12/
!!!SampleActualRank: 14
!!!SampleID#: 1181
!!!SampleTargetRank: 14
